X:12
T:Lichtmann 12
C:W. Byrd
M:C
L:1/8
Q:"Allegro" 1/4=132
K:G
!f!d4"_deciso"d2d2|B3cd2d2|e2d2c2B2|A6 B2|c3 d ef g2|G3 A Bc d2|
c2 B2 AGAB|G8||(dG)AB cded|(BA)Bc B2d2|(ef)de cdBc|A4A2AB|
c3d (e/d/e/f/) g2|(GF)GA BcdB|cBAG (AG)AB|G8||d2 dd d2d2|e2f2g4|
B2BB B2 G2|A2 B2c4|B3 A GA B2|c3B AB c2|d3c Bc d2|e3d cdBc|
A2G2G2F2|G6 (F/G/A/B/)|c3 B (A/G/A/B/) c2|d3 c Bcdf|(ef)de cdBc|A2G2 (GA)GF|G8|]

